coreui/free/cil-car-alt.svg

<svg xmlns="http://www.w3.org/2000/svg" viewBox="0 0 512 512">
  <path fill="var(--ci-primary-color, currentColor)" d="M475.656,223.142l-90.272-13.908-55.013-89.87a32.07,32.07,0,0,0-27.548-15.291L72.265,105.91A32.018,32.018,0,0,0,42.2,127.684L16,205.375V384H71.006a68,68,0,0,0,129.988,0H303.006a68,68,0,0,0,129.988,0H496V246.862A23.873,23.873,0,0,0,475.656,223.142ZM224,136.7l79.078-.63,44.1,72.047L224,208.074ZM72.521,137.908,192,136.956v71.107l-143.119-.051ZM136,400a36,36,0,1,1,36-36A36.04,36.04,0,0,1,136,400Zm232,0a36,36,0,1,1,36-36A36.04,36.04,0,0,1,368,400Zm96-48H434.918a67.982,67.982,0,0,0-133.836,0H202.918a67.982,67.982,0,0,0-133.836,0H48V240.026l330.526.529L464,253.724Z" class="ci-primary"/>
</svg>

<svg viewBox="0 0 512 512" xmlns="http://www.w3.org/2000/svg"><path d="M475.656 223.14l-90.28-13.91 -55.02-89.87v0c-5.88-9.57-16.33-15.37-27.55-15.3l-230.56 1.83v-.001c-13.64.11-25.71 8.85-30.07 21.77l-26.2 77.69v178.62H70.98l-.001-.001c11.04 35.89 49.09 56.04 84.98 44.99 21.52-6.63 38.37-23.48 44.99-45h102.01v0c11.04 35.89 49.09 56.04 84.98 44.99 21.52-6.63 38.37-23.48 44.99-45h63V246.8h-.001c.05-11.87-8.62-21.97-20.35-23.72ZM224 136.69l79.07-.63 44.1 72.04 -123.178-.05Zm-151.48 1.2l119.47-.96v71.107l-143.12-.06Zm63.47 262.092v0c-19.89 0-36-16.12-36-36 0-19.89 16.11-36 36-36 19.88 0 36 16.11 36 36v0c-.03 19.87-16.13 35.97-36 36Zm232 0v0c-19.89 0-36-16.12-36-36 0-19.89 16.11-36 36-36 19.88 0 36 16.11 36 36v0c-.03 19.87-16.13 35.97-36 36Zm96-48H434.9v0c-6.62-36.96-41.95-61.56-78.9-54.94 -28.01 5.01-49.93 26.93-54.94 54.93h-98.17v0c-6.62-36.96-41.95-61.56-78.9-54.94 -28.01 5.01-49.93 26.93-54.94 54.93H47.96V239.98l330.52.52 85.47 13.16Z"/></svg>
